X: 19
T: Farewell To Ireland
Z: Benjamin Glauser
S: https://thesession.org/tunes/33#setting47087
R: reel
M: 4/4
L: 1/8
K: Amix
|:A3c e3f|gedB GBdB|A3c e3f|gedB BAAG|
A3c e3f|gedB G2 g2|edeg a2 ba|gedB BA A2:|
|:a3b agef|g3a gede|a3b agef|gedB BA A2|
agef gage|d3B GABd|(3=cBA BA Bdef|gedB BA A2:|
|:eABA eABA|d3B GABd|eABA eAAf|gedB BA A2|
eABA eABA|d3B GABd|(3=cBA BA Bdef|gedB BA A2:|
|:aece aece|gdBd gdBd|aece a3f|gedB BA A2|
agef g3e|dedB GABd|(3=cBA BA Bdef|gedB BA A2:|

